humanity-icon-theme/Humanity/actions/16/process-stop.svg

<?xml version="1.0" encoding="UTF-8" standalone="no"?>
<!-- Created with Inkscape (http://www.inkscape.org/) -->

<svg
   xmlns:dc="http://purl.org/dc/elements/1.1/"
   xmlns:cc="http://creativecommons.org/ns#"
   xmlns:rdf="http://www.w3.org/1999/02/22-rdf-syntax-ns#"
   xmlns:svg="http://www.w3.org/2000/svg"
   xmlns="http://www.w3.org/2000/svg"
   xmlns:xlink="http://www.w3.org/1999/xlink"
   xmlns:sodipodi="http://sodipodi.sourceforge.net/DTD/sodipodi-0.dtd"
   xmlns:inkscape="http://www.inkscape.org/namespaces/inkscape"
   version="1.0"
   width="16"
   height="16"
   id="svg2528"
   inkscape:version="0.48.0 r9654"
   sodipodi:docname="process-stop.svg">
  <metadata
     id="metadata26">
    <rdf:RDF>
      <cc:Work
         rdf:about="">
        <dc:format>image/svg+xml</dc:format>
        <dc:type
           rdf:resource="http://purl.org/dc/dcmitype/StillImage" />
        <dc:title></dc:title>
      </cc:Work>
    </rdf:RDF>
  </metadata>
  <sodipodi:namedview
     pagecolor="#ffffff"
     bordercolor="#666666"
     borderopacity="1"
     objecttolerance="10"
     gridtolerance="10"
     guidetolerance="10"
     inkscape:pageopacity="0"
     inkscape:pageshadow="2"
     inkscape:window-width="1280"
     inkscape:window-height="753"
     id="namedview24"
     showgrid="false"
     inkscape:zoom="24.35099"
     inkscape:cx="8"
     inkscape:cy="8"
     inkscape:window-x="0"
     inkscape:window-y="24"
     inkscape:window-maximized="1"
     inkscape:current-layer="svg2528" />
  <defs
     id="defs2530">
    <linearGradient
       id="linearGradient2490">
      <stop
         id="stop2492"
         style="stop-color:#791235;stop-opacity:1"
         offset="0" />
      <stop
         id="stop2494"
         style="stop-color:#dd3b27;stop-opacity:1"
         offset="1" />
    </linearGradient>
    <linearGradient
       id="linearGradient3242">
      <stop
         id="stop3244"
         style="stop-color:#f8b17e;stop-opacity:1"
         offset="0" />
      <stop
         id="stop3246"
         style="stop-color:#e35d4f;stop-opacity:1"
         offset="0.26238" />
      <stop
         id="stop3248"
         style="stop-color:#c6262e;stop-opacity:1"
         offset="0.66093999" />
      <stop
         id="stop3250"
         style="stop-color:#690b54;stop-opacity:1"
         offset="1" />
    </linearGradient>
    <radialGradient
       inkscape:collect="always"
       xlink:href="#linearGradient3242"
       id="radialGradient3018"
       gradientUnits="userSpaceOnUse"
       gradientTransform="matrix(0,0.8796593,-1.1611346,0,12.632931,-21.08413)"
       cx="23.895569"
       cy="3.9900031"
       fx="23.895569"
       fy="3.9900031"
       r="20.397499" />
    <linearGradient
       inkscape:collect="always"
       xlink:href="#linearGradient2490"
       id="linearGradient3020"
       gradientUnits="userSpaceOnUse"
       gradientTransform="matrix(0.3685738,0,0,0.3685738,-0.84577,-0.8457701)"
       x1="18.379412"
       y1="44.980297"
       x2="18.379412"
       y2="3.0816143" />
    <linearGradient
       id="linearGradient4011">
      <stop
         id="stop4013"
         style="stop-color:#ffffff;stop-opacity:1;"
         offset="0" />
      <stop
         offset="0.507761"
         style="stop-color:#ffffff;stop-opacity:0.23529412;"
         id="stop4015" />
      <stop
         id="stop4017"
         style="stop-color:#ffffff;stop-opacity:0.15686275;"
         offset="0.83456558" />
      <stop
         id="stop4019"
         style="stop-color:#ffffff;stop-opacity:0.39215687;"
         offset="1" />
    </linearGradient>
    <linearGradient
       y2="44.340794"
       x2="71.204407"
       y1="6.2375584"
       x1="71.204407"
       gradientTransform="matrix(0.35135136,0,0,0.35135136,-17.203671,-0.9093005)"
       gradientUnits="userSpaceOnUse"
       id="linearGradient3280"
       xlink:href="#linearGradient4011"
       inkscape:collect="always" />
  </defs>
  <path
     d="m 8.0000011,0.50182787 c -4.1372321,0 -7.4981741,3.36093913 -7.4981741,7.49817173 0,4.1372334 3.360942,7.4981754 7.4981741,7.4981724 4.1372309,0 7.4981759,-3.360939 7.4981719,-7.4981724 0,-4.1372326 -3.360941,-7.49817173 -7.4981719,-7.49817173 z"
     id="path2555"
     style="fill:url(#radialGradient3018);fill-opacity:1;stroke:url(#linearGradient3020);stroke-width:1.00365424;stroke-linecap:round;stroke-linejoin:round;stroke-miterlimit:4;stroke-opacity:1;stroke-dasharray:none;stroke-dashoffset:0"
     inkscape:connector-curvature="0" />
  <path
     inkscape:connector-curvature="0"
     style="opacity:0.2;fill:#000000;fill-opacity:1;fill-rule:evenodd;stroke:none"
     id="path3243"
     d="M 5.2624588,2.7499997 4.0000004,4.0124583 6.6046516,6.6038207 c 0.080018,0.081027 0.080018,0.211332 0,0.2923584 L 4.0000004,9.4875411 5.2624588,10.75 7.8538212,8.1586383 c 0.081026,-0.080018 0.2113312,-0.080018 0.2923584,0 L 10.737542,10.75 12,9.4875411 9.408638,6.8961791 c -0.080018,-0.081026 -0.080018,-0.2113312 0,-0.2923584 L 12,4.0124583 10.737542,2.7499997 8.1461796,5.341362 c -0.081027,0.080018 -0.211332,0.080018 -0.2923584,0 L 5.2624588,2.7499997 z" />
  <path
     inkscape:connector-curvature="0"
     style="fill:#ffffff;fill-opacity:1;fill-rule:evenodd;stroke:none"
     id="path3256"
     d="M 5.2624588,4.0000006 4.0000004,5.262459 6.6046516,7.8538205 c 0.080018,0.081027 0.080018,0.211332 0,0.2923592 L 4.0000004,10.737542 5.2624588,12 7.8538212,9.4086377 c 0.081026,-0.080018 0.2113312,-0.080018 0.2923584,0 L 10.737542,12 12,10.737542 9.408638,8.1461797 c -0.080018,-0.081027 -0.080018,-0.211332 0,-0.2923592 L 12,5.262459 10.737542,4.0000006 8.1461796,6.5913621 c -0.081027,0.080018 -0.211332,0.080018 -0.2923584,0 L 5.2624588,4.0000006 z" />
  <path
     inkscape:connector-curvature="0"
     style="opacity:0.5;color:#000000;fill:none;stroke:url(#linearGradient3280);stroke-width:0.99999994;stroke-linecap:round;stroke-linejoin:round;stroke-miterlimit:4;stroke-opacity:1;stroke-dasharray:none;stroke-dashoffset:0;marker:none;visibility:visible;display:inline;overflow:visible;enable-background:accumulate"
     id="path8655-6"
     d="M 14.5,7.9997687 C 14.5,11.589737 11.589636,14.5 8.0000824,14.5 4.4101993,14.5 1.5,11.589703 1.5,7.9997687 1.5,4.4099694 4.4101993,1.5 8.0000824,1.5 11.589636,1.5 14.5,4.4099694 14.5,7.9997687 l 0,0 z" />
</svg>

<?xml version="1.0" encoding="UTF-8" standalone="no"?>
<!-- Created with Inkscape (http://www.inkscape.org/) -->
<svg id="svg2528" xmlns="http://www.w3.org/2000/svg" height="16" width="16" version="1.0" xmlns:xlink="http://www.w3.org/1999/xlink">
 <defs id="defs2530">
  <linearGradient id="linearGradient2406" y2="5.4676" gradientUnits="userSpaceOnUse" x2="63.397" gradientTransform="matrix(.74324 0 0 .74322 -38.23 10.609)" y1="-12.489" x1="63.397">
   <stop id="stop4875" style="stop-color:#fff" offset="0"/>
   <stop id="stop4877" style="stop-color:#fff;stop-opacity:0" offset="1"/>
  </linearGradient>
  <linearGradient id="linearGradient2411" y2="3.0816" gradientUnits="userSpaceOnUse" x2="18.379" gradientTransform="matrix(.36857 0 0 .36857 -.84577 -.84577)" y1="44.98" x1="18.379">
   <stop id="stop2492" style="stop-color:#791235" offset="0"/>
   <stop id="stop2494" style="stop-color:#dd3b27" offset="1"/>
  </linearGradient>
  <radialGradient id="radialGradient2409" gradientUnits="userSpaceOnUse" cy="3.99" cx="23.896" gradientTransform="matrix(0 .87966 -1.1611 0 12.633 -21.084)" r="20.397">
   <stop id="stop3244" style="stop-color:#f8b17e" offset="0"/>
   <stop id="stop3246" style="stop-color:#e35d4f" offset=".26238"/>
   <stop id="stop3248" style="stop-color:#c6262e" offset=".66094"/>
   <stop id="stop3250" style="stop-color:#690b54" offset="1"/>
  </radialGradient>
 </defs>
 <g id="layer1">
  <g id="g2552">
   <path id="path2555" style="stroke-linejoin:round;stroke:url(#linearGradient2411);stroke-linecap:round;stroke-width:1.0037;fill:url(#radialGradient2409)" d="m8 0.50183c-4.1372 0-7.4982 3.361-7.4982 7.4982 0.00003 4.137 3.361 7.498 7.4982 7.498 4.137 0 7.498-3.361 7.498-7.498 0-4.1372-3.361-7.4982-7.498-7.4982z"/>
   <path id="path2463" style="opacity:.4;stroke:url(#linearGradient2406);fill:none" d="m14.5 7.9998c0 3.5902-2.91 6.5002-6.4999 6.5002s-6.5001-2.91-6.5001-6.5002c0-3.5898 2.9102-6.4998 6.5001-6.4998s6.4999 2.91 6.4999 6.4998z"/>
  </g>
  <path id="path3243" style="opacity:.2;fill-rule:evenodd" d="m5.2625 3l-1.2625 1.2625 2.6047 2.5913c0.08 0.081 0.08 0.2114 0 0.2924l-2.6047 2.5913 1.2625 1.2625 2.5913-2.5914c0.081-0.08 0.2114-0.08 0.2924 0l2.5918 2.5914 1.262-1.2625-2.5914-2.5913c-0.08-0.081-0.08-0.2114 0-0.2924l2.5914-2.5913-1.262-1.2625-2.5918 2.5914c-0.081 0.08-0.2114 0.08-0.2924 0l-2.5913-2.5914z"/>
  <path id="path3256" style="fill:#fff;fill-rule:evenodd" d="m5.2625 4l-1.2625 1.2625 2.6047 2.5913c0.08 0.081 0.08 0.2114 0 0.2924l-2.6047 2.5918 1.2625 1.262 2.5913-2.5914c0.081-0.08 0.2114-0.08 0.2924 0l2.5918 2.5914 1.262-1.262-2.5914-2.5918c-0.08-0.081-0.08-0.2114 0-0.2924l2.5914-2.5913-1.262-1.2625-2.5918 2.5914c-0.081 0.08-0.2114 0.08-0.2924 0l-2.5913-2.5914z"/>
 </g>
</svg>
